X:4822
T:Old Tom of Oxford
O:england
M:4/4
C:
S:Bacon (EDS 1951)
N:
A:Bampton
R:Reel
%P:A.AB.(C.B)$^2$
P:A.AB.(C.B)2
K:G
I:speed 400
P:A
Bc | d2 ef g2 d2 | c2 B2 A2 BA | G2 Bc d2 g2 | f2 g2 a2   \
gf | d2 ef g2 d2 | c2 B2 A2 ef | g2 d2 c2 B2 | A4    G2   ||\
P:B
dc | Bc d2 B2 d2 | B2 d2 gfed  | c2 e2 c2 e2 | c2 e2 gfed |\
B2 d2 B2 d2 | d2 ef g2 f2 | g2 d2 c2 B2 | A4    G4   ||\
P:C
M:2/4
L:1/8
B2 c2 |\
M:4/4
d4    e2 f2 | g4    d4    | c4    B4    | A6       BA |\
G4    B2 c2 | d4    g4    | f4    g4    |\
M:2/4
L:1/8
a2 fe |\
M:4/4
d2 ef g2 d2 | c2 B2 A2 ef | g2 d2 c2 B2 | A4    G2    ||


